Papirus/16x16/apps/kjots.svg

<!-- Created with Inkscape (http://www.inkscape.org/) -->
<svg width="16" height="16" version="1.1" viewBox="0 0 16 16.000001" xmlns="http://www.w3.org/2000/svg">
 <rect x="2" width="12" height="16" ry=".99999201" style="fill:#fabd01"/>
 <path d="M 2.9999921,0 C 2.4459965,0 2,0.4459965 2,0.9999921 V 14.999848 c 0,0.553996 0.4459965,0.999992 0.9999921,0.999992 H 4.9999764 V 0 Z" style="opacity:.5"/>
 <path d="m14.57207 3.0005887c-0.274819-0.013085-0.484375 0.196289-0.484375 0.196289l-7.0875774 7.0878903v1.715232h1.714844l7.0881554-7.0882783s0.442986-0.4427295 0-0.8857425l-0.829679-0.8291015c-0.138434-0.1384415-0.27645-0.1903405-0.401368-0.196289z" style="fill:#4f4f4f"/>
</svg>

<svg xmlns="http://www.w3.org/2000/svg" width="16" height="16" version="1.1">
 <rect style="fill:#fabd01" width="12" height="16" x="2" ry="1"/>
 <path style="opacity:0.5" d="M 3 0 C 2.446 0 2 0.446 2 1 L 2 15 C 2 15.554 2.446 16 3 16 L 5 16 L 5 0 L 3 0 z"/>
 <path style="fill:#4f4f4f" d="M 14.572,3.001 C 14.297,2.988 14.088,3.197 14.088,3.197 L 7,10.285 V 12 H 8.715 L 15.803,4.912 C 15.803,4.912 16.246,4.469 15.803,4.026 L 14.973,3.197 C 14.835,3.059 14.697,3.007 14.572,3.001 Z"/>
</svg>
